svgs/regular/paint-roller.svg

<svg xmlns="http://www.w3.org/2000/svg" viewBox="0 0 512 512"><!--! Font Awesome Pro 6.3.0 by @fontawesome - https://fontawesome.com License - https://fontawesome.com/license (Commercial License) Copyright 2023 Fonticons, Inc. --><path d="M352 48H64c-8.8 0-16 7.2-16 16v64c0 8.8 7.2 16 16 16H352c8.8 0 16-7.2 16-16V64c0-8.8-7.2-16-16-16zM64 0H352c35.3 0 64 28.7 64 64v8 48 8c0 35.3-28.7 64-64 64H64c-35.3 0-64-28.7-64-64V64C0 28.7 28.7 0 64 0zm96 352c0-17.7 14.3-32 32-32h8V304c0-39.8 32.2-72 72-72H424c22.1 0 40-17.9 40-40V144c0-10.4-6.7-19.3-16-22.6V72.4c36 4 64 34.5 64 71.6v48c0 48.6-39.4 88-88 88H272c-13.3 0-24 10.7-24 24v16h8c17.7 0 32 14.3 32 32V480c0 17.7-14.3 32-32 32H192c-17.7 0-32-14.3-32-32V352z"/></svg>

<svg xmlns="http://www.w3.org/2000/svg" viewBox="0 0 512 512"><!--! Font Awesome Pro 6.2.0 by @fontawesome - https://fontawesome.com License - https://fontawesome.com/license (Commercial License) Copyright 2022 Fonticons, Inc. --><path d="M352 0C387.3 0 416 28.65 416 64V128C416 163.3 387.3 192 352 192H64C28.65 192 0 163.3 0 128V64C0 28.65 28.65 0 64 0H352zM352 48H64C55.16 48 48 55.16 48 64V128C48 136.8 55.16 144 64 144H352C360.8 144 368 136.8 368 128V64C368 55.16 360.8 48 352 48zM160 352C160 334.3 174.3 320 192 320H200V304C200 264.2 232.2 232 272 232H424C446.1 232 464 214.1 464 192V144C464 133.6 457.3 124.7 448 121.4V72.44C484 76.42 512 106.9 512 144V192C512 240.6 472.6 280 424 280H272C258.7 280 248 290.7 248 304V320H256C273.7 320 288 334.3 288 352V480C288 497.7 273.7 512 256 512H192C174.3 512 160 497.7 160 480V352z"/></svg>
